X:16
T:Terry "Cuz" Teehan's
R:highland
C:Terry "Cuz" Teehan
Z:id:hn-hf-16
M:C|
L:1/8
K:Edor
B2BA B2BA | dBAF DEFA | B2BA B2ef |1 edcd BEFA :|2 edcd BE~E2 ||
|: Beef g2fe | d2 (3Bcd ADFA |1 Beef g2fe | dBAF FEFA :|2 Beed BAFA | DEED EFGA ||

